mobile/24/svg/sync-24.svg

<svg width="24" height="24" viewBox="0 0 24 24" fill="none" xmlns="http://www.w3.org/2000/svg">
<path d="M4.75 12.03C4.75 8.03196 8.002 4.77996 12 4.77996C12.028 4.77996 12.055 4.78596 12.083 4.78596V6.94896C12.083 7.43896 12.675 7.68396 13.022 7.33796L15.971 4.38896C16.186 4.17396 16.186 3.82596 15.971 3.61096L13.022 0.661958C12.676 0.315958 12.083 0.560958 12.083 1.05096V3.03596C12.055 3.03596 12.028 3.02996 12 3.02996C7.037 3.02996 3 7.06696 3 12.03C3 14.801 4.26 17.281 6.236 18.934L7.48 17.69C5.819 16.36 4.75 14.319 4.75 12.03Z" fill="black"/>
<path d="M17.727 5.09296L16.479 6.34096C18.163 7.66996 19.25 9.72396 19.25 12.031C19.25 16.029 15.998 19.281 12 19.281C11.972 19.281 11.945 19.275 11.917 19.274V17.051C11.917 16.561 11.325 16.316 10.978 16.662L8.029 19.611C7.814 19.826 7.814 20.174 8.029 20.389L10.978 23.338C11.324 23.684 11.917 23.439 11.917 22.949V21.027C11.945 21.027 11.972 21.03 12 21.03C16.963 21.03 21 16.993 21 12.03C21 9.24096 19.725 6.74496 17.727 5.09296Z" fill="black"/>
</svg>

<svg width="24" height="24" fill="none" xmlns="http://www.w3.org/2000/svg"><path d="M4.75 12.03c0-3.998 3.252-7.25 7.25-7.25.028 0 .055.006.083.006v2.163c0 .49.592.735.939.389l2.949-2.949a.55.55 0 0 0 0-.778L13.022.662a.55.55 0 0 0-.939.389v1.985c-.028 0-.055-.006-.083-.006-4.963 0-9 4.037-9 9a8.983 8.983 0 0 0 3.236 6.904L7.48 17.69a7.239 7.239 0 0 1-2.73-5.66zM17.727 5.093l-1.248 1.248a7.237 7.237 0 0 1 2.771 5.69c0 3.998-3.252 7.25-7.25 7.25-.028 0-.055-.006-.083-.007v-2.223a.55.55 0 0 0-.939-.389l-2.949 2.949a.55.55 0 0 0 0 .778l2.949 2.949a.55.55 0 0 0 .939-.389v-1.922c.028 0 .055.003.083.003 4.963 0 9-4.037 9-9a8.984 8.984 0 0 0-3.273-6.937z" fill="#000"/></svg>
